X:1
T:Off to Donnybrook -- Jig
R:jig
B:Ryan's Mammoth Collection
Z:Contributed by Ray Davies, ray:davies99.freeserve.co.uk
M:6/8
L:1/8
K:G
uE|"segno"DGG BGG|AGG GBd|efg dBG|AGG BGE|\
DGG BGG|AGG GBd|efg dBG|AGA G2H::
uf|gfg efg|edB def|gfg eag|fdd d2f|\
gfg efg|edB def|1gfe dBA|\
BGG G2:|2gba gfe|dBA BGE"segno""_DS"|]
